X:1
T:Title
%%score ( 1 2 ) { 3 | 4 }
L:1/8
Q:1/4=97
M:4/4
K:Ab
V:1 treble nm="Grand Piano, Soprano"
V:2 treble 
V:3 treble nm="Choir Pad, Mallorca, Chester G. Allen"
V:4 bass 
V:1
 [Ac]2 [Ad][Ac] [GB]2 [Ac][EA] | GA[GB][Ac] [ce]2 [Bd]2 | [Ac]2 [GB]A F2 [FB][EA] | %3
w: By~Chester~G.~Allen,~1869~ * * * * *|||
 GA[GB][Ac] [GB]4 | [Ac]2 [Ad][Ac] [GB]2 [Ac][EA] | GA[GB][Ac] [ce]2 [Bd]2 | %6
w: |||
 [Ac]2 [Fd][Ec] [DF]2 [FB][Fd] | [Ec][FB][EA][EG] [EA]4 | [EB]2 [EA][EG] [EA]2 [CE][EA] | %9
w: |||
 GA[GB][Ac] [Bd]2 [Ac]2 | [Ae]2 [Gd][Ac] [GB]2 [Ac][EA] | [EG][GB][FA][=DF] E4 | %12
w: |||
 [Ec]2 [Fd][Ec] [GB]2 [Ac][EA] | GA[EB][EA] [EA]2 [EG]2 | EA[Ec][Ee] [DF]2 [FB][Fd] | %15
w: |||
 [Ec][FB][EA][EG] [EA]4- | [EA]4 z4 |] %17
w: ||
V:2
 x8 | E2 z2 z4 | x8 | E2 z2 z4 | x8 | E2 z2 z4 | x8 | x8 | x8 | E2 z2 z4 | x8 | x8 | x8 | %13
 E2 z2 z4 | x8 | x8 | x8 |] %17
V:3
 E2 FE D2 EC | B,CEE E2 E2 | E2 DC D2 DC | B,CEE E4 | E2 FE D2 EC | B,CEE E2 E2 | %6
 E2[K:bass] A,A, A,2 A,B, | A,[K:treble]DCB, C4 | D2 C[K:bass]B, C2 A,A, | B,[K:treble]CEE E2 E2 | %10
 E2 EE E2 EC | B,2 B,B, G,4 | A,2 A,A,[K:treble] D2 EC | B,CDC C2[K:bass] B,2 | C2 A,C A,2 A,B, | %15
 A,[K:treble]DCB, C4- | C4 z4 |] %17
V:4
 A,2 A,A, E,2 E,E, | E,2 E,E, E,2 G,2 | A,2 E,F, D,2 D,E, | E,2 E,E, E,4 | A,2 A,A, E,2 E,E, | %5
 E,2 E,E, E,2 G,2 | A,2 z2 D,2 D,B,, | C,D,E,E, A,,4 | E,2 E,E, A,,2 A,,C, | E,2 E,E, G,2 A,2 | %10
 C2 B,A, E,2 A,A, | z2 B,,B,, E,4 | z4 E,2 E,E, | E,2 E,E, E,2 E,2 | A,2 z A, D,2 D,B,, | %15
 C,D,E,E, A,,4- | A,,4 z4 |] %17

